!!!COM: Music21
!!!OTL: Mazurca
!!!OMV: pezas_mazurcas_mazurca-3_mazurca-partitura.musicxml
**kern
*I"Bagpipes
*I'Bag
*clefG^2
*k[]
*M3/4
=1
!LO:TX:a:t=Moderato
*MM112
!LO:TX:a:t=[quarter]=112
2r
4bb
=||
8.dddL
16cccJk
8.bbL
16aaJk
8.ggL
16ffJk
=
4gg
8.eeL
16ccJk
8.eeL
16ggJk
=
4gg
8.ffL
16ddJk
8.ffL
16aaJk
=
4gg
4ee
4bb
=
8.dddL
16cccJk
8.bbL
16aaJk
8.ggL
16ffJk
=
4gg
8.eeL
16ccJk
8.eeL
16ggJk
!!linebreak:original
=
4gg
8.ddL
16ffJk
8.eeL
16ddJk
=
4cc
4cc
4bb
=||
8.dddL
16cccJk
8.bbL
16aaJk
8.ggL
16ffJk
=
4gg
8.eeL
16ccJk
8.eeL
16ggJk
=
4gg
8.ffL
16ddJk
8.ffL
16aaJk
=
4gg
4ee
4bb
=
8.dddL
16cccJk
8.bbL
16aaJk
8.ggL
16ffJk
=
4gg
8.eeL
16ccJk
8.eeL
16ggJk
!!linebreak:original
=
4gg
8.ddL
16ffJk
8.eeL
16ddJk
=
4cc
8.ccL
16ccJk
8.ddL
16eeJk
=||
*k[b-]
*F:
8ff
4r
16r
16cc
8.ddL
16eeJk
=
4ff
8.ffL
16ggJk
8.aaL
16ffJk
=
8.ggL
16eeJk
8.ccL
16eeJk
8.ggL
16bb-Jk
=
4aa
8.ffL
16ccJk
8.ddL
16eeJk
!!linebreak:original
=
8ff
4r
16r
16cc
8.ddL
16eeJk
=
4ff
8.ffL
16ggJk
8.aaL
16ffJk
=
8.ggL
16eeJk
8.ccL
16bb-Jk
8.aaL
16ggJk
=
4ff
8.ffL
16ccJk
8.ddL
16eeJk
=||
8ff
4r
16r
16cc
8.ddL
16eeJk
=
4ff
8.ffL
16ggJk
8.aaL
16ffJk
!!linebreak:original
=
8.ggL
16eeJk
8.ccL
16eeJk
8.ggL
16bb-Jk
=
4aa
8.ffL
16ccJk
8.ddL
16eeJk
!!linebreak:original
=
8ff
4r
16r
16cc
8.ddL
16eeJk
=
4ff
8.ffL
16ggJk
8.aaL
16ffJk
=
8.ggL
16eeJk
8.ccL
16bb-Jk
8.aaL
16ggJk
=
4ff
4ff
4bbn
==
*-
